picto/stairs-up-right-framed.svg

<svg class="color-immutable" width="30" height="30" viewBox="0 0 30 30" fill="none" xmlns="http://www.w3.org/2000/svg"><path d="M29.9999 0H0V29.9999H29.9999V0Z" fill="#2D327D"/><path d="M25.4999 2.99999C26.3249 2.99999 26.9999 3.67499 26.9999 4.49999V25.4999C26.9999 26.3249 26.3249 26.9999 25.4999 26.9999H4.49999C3.67499 26.9999 2.99999 26.3249 2.99999 25.4999V4.49999C2.99999 3.67499 3.67499 2.99999 4.49999 2.99999H25.4999ZM25.4999 2.62499H4.49999C3.46612 2.62499 2.62499 3.46612 2.62499 4.49999V25.4999C2.62499 26.5338 3.46612 27.3749 4.49999 27.3749H25.4999C26.5338 27.3749 27.3749 26.5338 27.3749 25.4999V4.49999C27.3749 3.46612 26.5338 2.62499 25.4999 2.62499Z" fill="white"/><path d="M9.26555 8.63548C8.54106 8.63548 7.95298 8.04756 7.95298 7.32291C7.95298 6.59841 8.54106 6.01064 9.26555 6.01064C9.99005 6.01064 10.5779 6.59848 10.5779 7.32291C10.5779 8.04756 9.99005 8.63548 9.26555 8.63548Z" fill="white"/><path d="M7.94944 19.2096V11.587L7.12444 12.6745V15.3746C7.12444 15.6435 6.90611 15.8621 6.63686 15.8621C6.36791 15.8621 6.14929 15.6436 6.14929 15.3746V12.2886C6.14929 12.125 6.20306 11.9658 6.30199 11.8353L7.87939 9.75597V9.7559C8.16281 9.38217 8.60516 9.1625 9.07443 9.1625C9.90258 9.1625 10.5744 9.83457 10.5744 10.6625V15.9378L12.1172 17.4806C12.2579 17.6211 12.3371 17.8119 12.3371 18.0108V22.2558C12.3371 22.6388 12.0263 22.9494 11.6433 22.9494C11.2604 22.9494 10.9496 22.6388 10.9496 22.2558V18.4871L9.44943 16.9869V19.2236C9.44943 19.368 9.40781 19.5093 9.32928 19.6307L6.94804 23.3156C6.82016 23.5132 6.60079 23.6327 6.36536 23.6327C5.98249 23.6327 5.67162 23.322 5.67162 22.939C5.67162 22.8054 5.71009 22.6747 5.78269 22.5625L7.94944 19.2096Z" fill="white"/><path d="M12.2806 14.6043C12.2219 14.6043 12.1636 14.5941 12.1082 14.574L11.2119 14.2495V13.1728L12.4529 13.622C12.6532 13.6944 12.7867 13.8848 12.7867 14.098C12.7867 14.3774 12.5599 14.6043 12.2806 14.6043Z" fill="white"/><path d="M20.5869 21.2244H17.1744V22.612H13.762V23.9995H9.67441V23.3245H13.0868V21.9371H16.4992V20.5496H19.9119V19.1619H23.9994V19.8369H20.5869V21.2244Z" fill="white"/></svg>

<svg class="color-immutable" width="30" height="30" viewBox="0 0 30 30" fill="none" xmlns="http://www.w3.org/2000/svg"><path d="M30 0H0v30h30V0Z" fill="#2D327D"/><path d="M25.5 3c.825 0 1.5.675 1.5 1.5v21c0 .825-.675 1.5-1.5 1.5h-21c-.825 0-1.5-.675-1.5-1.5v-21C3 3.675 3.675 3 4.5 3h21Zm0-.375h-21A1.877 1.877 0 0 0 2.625 4.5v21c0 1.034.841 1.875 1.875 1.875h21a1.877 1.877 0 0 0 1.875-1.875v-21A1.877 1.877 0 0 0 25.5 2.625Z" fill="#fff"/><path d="M9.266 8.635a1.313 1.313 0 1 1 0-2.626 1.313 1.313 0 0 1 0 2.626ZM7.95 19.21v-7.623l-.826 1.088v2.7a.488.488 0 0 1-.975 0v-3.086a.75.75 0 0 1 .153-.454l1.577-2.079a1.5 1.5 0 0 1 2.695.906v5.276l1.543 1.543c.14.14.22.33.22.53v4.245a.694.694 0 0 1-1.387 0v-3.769l-1.5-1.5v2.237a.75.75 0 0 1-.12.407l-2.382 3.685a.694.694 0 0 1-1.165-.753l2.166-3.353Z" fill="#fff"/><path d="M12.28 14.604a.505.505 0 0 1-.172-.03l-.896-.325v-1.076l1.24.449a.506.506 0 0 1-.171.982ZM20.587 21.224h-3.413v1.388h-3.412V24H9.674v-.675h3.413v-1.388h3.412V20.55h3.413v-1.388h4.087v.675h-3.412v1.387Z" fill="#fff"/></svg>
